icons/lines/threed-rotate.svg

<svg xmlns="http://www.w3.org/2000/svg" width="24" height="24" viewBox="0 0 24 24" fill="none" stroke="currentColor" stroke-width="2" stroke-linecap="round" stroke-linejoin="round" >
  <path d="M6.7002 9.26001L12.0002 12.33L17.2602 9.28001"/>
  <path d="M12 17.7701V12.3201"/>
  <path d="M10.7603 6.28998L7.56024 8.06998C6.84024 8.46998 6.24023 9.47998 6.24023 10.31V13.7C6.24023 14.53 6.83024 15.54 7.56024 15.94L10.7603 17.72C11.4403 18.1 12.5602 18.1 13.2502 17.72L16.4503 15.94C17.1703 15.54 17.7702 14.53 17.7702 13.7V10.3C17.7702 9.46998 17.1803 8.45998 16.4503 8.05998L13.2502 6.27998C12.5602 5.89998 11.4403 5.89998 10.7603 6.28998Z"/>
  <path d="M22 15C22 18.87 18.87 22 15 22L16.05 20.25"/>
  <path d="M2 9C2 5.13 5.13 2 9 2L7.95001 3.75"/>
  </svg>

<svg xmlns="http://www.w3.org/2000/svg" width="24" height="24" viewBox="0 0 24 24" fill="none" stroke="currentColor" stroke-width="2" stroke-linecap="round" stroke-linejoin="round">
  <path d="M12 17.77v-5.45" />
  <path d="M2 9a7 7 0 0 1 7-7L7.95 3.75" />
  <path d="M22 15a7 7 0 0 1-7 7l1.05-1.75" />
  <path d="m6.7 9.26 5.3 3.07 5.26-3.05" />
  <path d="M7.56 8.07c-.72.4-1.32 1.41-1.32 2.24v3.39c0 .83.59 1.84 1.32 2.24l3.2 1.78c.68.38 1.8.38 2.49 0l3.2-1.78c.72-.4 1.32-1.41 1.32-2.24v-3.4c0-.83-.59-1.84-1.32-2.24l-3.2-1.78c-.69-.38-1.81-.38-2.49.01z" />
</svg>
